src/images/vinnovera_logo.svg

<?xml version="1.0" encoding="UTF-8" standalone="no"?>
<svg width="175px" height="44px" viewBox="0 0 175 44" version="1.1" xmlns="http://www.w3.org/2000/svg" xmlns:xlink="http://www.w3.org/1999/xlink" xmlns:sketch="http://www.bohemiancoding.com/sketch/ns">
    <!-- Generator: Sketch 3.3.3 (12081) - http://www.bohemiancoding.com/sketch -->
    <title>vinnovera_logo</title>
    <desc>Created with Sketch.</desc>
    <defs></defs>
    <g id="New-design" stroke="none" stroke-width="1" fill="none" fill-rule="evenodd" sketch:type="MSPage">
        <g id="Desktop-HD" sketch:type="MSArtboardGroup" transform="translate(-732.000000, -4098.000000)" fill="#FFFFFF">
            <g id="Rectangle-218" sketch:type="MSLayerGroup" transform="translate(0.000000, 3896.000000)">
                <g id="ihopsnickrat-av:-+-Group-+-Fill-13-+-Fill-14-+-Fill-15-+-Bitmap" transform="translate(533.000000, 128.000000)" sketch:type="MSShapeGroup">
                    <g id="Group-+-Fill-13-+-Fill-14-+-Fill-15-+-Bitmap" transform="translate(0.000000, 74.000000)">
                        <g id="vinnovera_logo" transform="translate(199.000000, 0.000000)">
                            <path d="M56.0086195,30.0325284 L56.1017841,30.0325284 L61.2837044,14.1753791 C61.5008763,13.4547456 61.9660631,13.078693 62.5867362,13.078693 C63.3625775,13.078693 63.9209288,13.6429324 63.9209288,14.3950375 C63.9209288,14.5829031 63.8900859,14.8022404 63.7969214,15.0841995 L57.6843095,33.1035706 C57.2808085,34.2317282 56.8464645,34.7018741 55.9777766,34.7018741 C55.1399316,34.7018741 54.6744269,34.2317282 54.3020866,33.1035706 L48.1894748,15.0841995 C48.0963102,14.8022404 48.0654674,14.5829031 48.0654674,14.3950375 C48.0654674,13.6429324 48.6238187,13.078693 49.39966,13.078693 C50.0511759,13.078693 50.4855198,13.4547456 50.7338526,14.1753791 L56.0086195,30.0325284 Z M67.2758065,20.7879305 C67.2758065,19.9102605 67.8344758,19.3774926 68.5791562,19.3774926 C69.3238367,19.3774926 69.882506,19.9102605 69.882506,20.7879305 L69.882506,33.2917574 C69.882506,34.1691063 69.3238367,34.7018741 68.5791562,34.7018741 C67.8344758,34.7018741 67.2758065,34.1691063 67.2758065,33.2917574 L67.2758065,20.7879305 Z M73.6844463,20.7879305 C73.6844463,19.9102605 74.2427977,19.3774926 74.9874781,19.3774926 C75.7321586,19.3774926 76.2908279,19.9102605 76.2908279,20.7879305 L76.2908279,21.2266049 L76.3216708,21.2266049 C77.0355083,20.0669758 78.4628655,19.1896269 80.4797349,19.1896269 C83.7067895,19.1896269 85.6304944,21.4144706 85.6304944,24.8304149 L85.6304944,33.2917574 C85.6304944,34.1691063 85.071825,34.7018741 84.3271446,34.7018741 C83.5824641,34.7018741 83.0237948,34.1691063 83.0237948,33.2917574 L83.0237948,25.4572762 C83.0237948,23.0442457 81.937935,21.634129 79.7038936,21.634129 C77.6870242,21.634129 76.2908279,23.075396 76.2908279,25.3005609 L76.2908279,33.2917574 C76.2908279,34.1691063 75.7321586,34.7018741 74.9874781,34.7018741 C74.2427977,34.7018741 73.6844463,34.1691063 73.6844463,33.2917574 L73.6844463,20.7879305 Z M89.4413378,20.7879305 C89.4413378,19.9102605 89.9996891,19.3774926 90.7443696,19.3774926 C91.48905,19.3774926 92.0477193,19.9102605 92.0477193,20.7879305 L92.0477193,21.2266049 L92.0785622,21.2266049 C92.7923998,20.0669758 94.219757,19.1896269 96.2366264,19.1896269 C99.463363,19.1896269 101.387386,21.4144706 101.387386,24.8304149 L101.387386,33.2917574 C101.387386,34.1691063 100.828717,34.7018741 100.084036,34.7018741 C99.3393556,34.7018741 98.7810042,34.1691063 98.7810042,33.2917574 L98.7810042,25.4572762 C98.7810042,23.0442457 97.6948264,21.634129 95.4607851,21.634129 C93.4439157,21.634129 92.0477193,23.075396 92.0477193,25.3005609 L92.0477193,33.2917574 C92.0477193,34.1691063 91.48905,34.7018741 90.7443696,34.7018741 C89.9996891,34.7018741 89.4413378,34.1691063 89.4413378,33.2917574 L89.4413378,20.7879305 Z M114.390995,30.0951503 C114.639327,29.2804234 114.732492,28.4656964 114.732492,27.0241082 C114.732492,25.58252 114.639327,24.7992645 114.390995,23.9842164 C113.894647,22.4800063 112.684462,21.634129 111.039933,21.634129 C109.395403,21.634129 108.185536,22.4800063 107.688871,23.9842164 C107.440856,24.7992645 107.347691,25.58252 107.347691,27.0241082 C107.347691,28.4656964 107.440856,29.2804234 107.688871,30.0951503 C108.185536,31.5993605 109.395403,32.4455589 111.039933,32.4455589 C112.684462,32.4455589 113.894647,31.5993605 114.390995,30.0951503 Z M105.175654,30.8472554 C104.834156,29.8131912 104.679306,28.7791271 104.679306,27.0241082 C104.679306,25.3005609 104.834156,24.2664967 105.175654,23.2321114 C105.982338,20.6623655 108.154375,19.1896269 111.039933,19.1896269 C113.925808,19.1896269 116.097845,20.6623655 116.90453,23.2321114 C117.245709,24.2664967 117.400877,25.3005609 117.400877,27.0241082 C117.400877,28.7791271 117.245709,29.8131912 116.90453,30.8472554 C116.097845,33.3858508 113.925808,34.890061 111.039933,34.890061 C108.154375,34.890061 105.982338,33.3858508 105.175654,30.8472554 Z M124.177724,33.0724202 L119.678798,21.2892268 C119.585634,21.0384181 119.554473,20.8505524 119.554473,20.6312152 C119.554473,19.941732 120.051138,19.3774926 120.826662,19.3774926 C121.447335,19.3774926 121.850836,19.7535452 122.068008,20.3177845 L125.915417,30.7534831 L125.977421,30.7534831 L129.731984,20.3177845 C129.949156,19.7535452 130.352657,19.3774926 130.973012,19.3774926 C131.748854,19.3774926 132.245201,19.941732 132.245201,20.6312152 C132.245201,20.8505524 132.214358,21.0384181 132.121194,21.2892268 L127.591107,33.0724202 C127.125603,34.2946712 126.722102,34.7018741 125.884257,34.7018741 C125.04673,34.7018741 124.643229,34.2946712 124.177724,33.0724202 Z M144.151821,25.6451419 C144.275829,25.6451419 144.337832,25.58252 144.337832,25.4572762 C144.337832,24.767793 144.275829,24.2350252 144.120661,23.7648792 C143.624313,22.2606691 142.382967,21.4144706 140.707595,21.4144706 C139.031905,21.4144706 137.790877,22.2606691 137.294211,23.7648792 C137.139361,24.2350252 137.077039,24.767793 137.077039,25.4572762 C137.077039,25.58252 137.139361,25.6451419 137.263368,25.6451419 L144.151821,25.6451419 Z M134.905001,30.7220116 C134.594983,29.7817197 134.408654,28.7165052 134.408654,26.9300148 C134.408654,25.1438455 134.563822,24.0783098 134.874159,23.1383391 C135.712004,20.5371217 137.85288,19.0955335 140.676434,19.0955335 C143.593152,19.0955335 145.703186,20.5371217 146.50987,23.1068676 C146.85105,24.1097814 147.006218,25.2690893 147.006218,26.7421491 C147.006218,27.3375388 146.603035,27.7447417 145.982362,27.7447417 L137.263368,27.7447417 C137.139361,27.7447417 137.077039,27.8076848 137.077039,27.9329286 C137.077039,28.6535621 137.139361,29.1551796 137.325372,29.7505693 C137.884041,31.4741167 139.249077,32.3514655 141.079935,32.3514655 C142.538135,32.3514655 143.531148,31.9127911 144.648169,31.0665926 C144.958506,30.816105 145.237681,30.6905401 145.548018,30.6905401 C146.168691,30.6905401 146.633878,31.160686 146.633878,31.7875473 C146.633878,32.1635998 146.478709,32.4770305 146.230694,32.7275181 C144.958506,33.9186187 143.189969,34.7959675 140.893606,34.7959675 C137.82172,34.7959675 135.742846,33.3543793 134.905001,30.7220116 Z M150.812292,33.197664 L150.812292,20.6938371 C150.812292,19.8164882 151.370643,19.2837204 152.115323,19.2837204 C152.860004,19.2837204 153.418673,19.8164882 153.418673,20.6938371 L153.418673,21.3833202 L153.449516,21.3833202 C154.070189,20.0358254 155.435543,19.0955335 157.266083,19.0955335 C158.290257,19.0955335 158.972616,19.3463423 159.469281,19.6283014 C159.99679,19.9102605 160.213962,20.3177845 160.213962,20.756459 C160.213962,21.508564 159.686453,22.0728034 158.910612,22.0728034 C158.724601,22.0728034 158.476268,22.0101815 158.259096,21.9160881 C157.700745,21.6967509 157.173236,21.5400355 156.552563,21.5400355 C154.318522,21.5400355 153.418673,23.4202982 153.418673,25.9274221 L153.418673,33.197664 C153.418673,34.0750129 152.860004,34.6077807 152.115323,34.6077807 C151.370643,34.6077807 150.812292,34.0750129 150.812292,33.197664 Z M171.320893,29.593854 L171.320893,27.9329286 C171.320893,27.8076848 171.258571,27.7447417 171.134564,27.7447417 L168.155842,27.7447417 C165.611464,27.7447417 164.463283,28.4968468 164.463283,30.1892438 C164.463283,31.7560758 165.580303,32.5396524 167.56633,32.5396524 C169.862375,32.5396524 171.320893,31.4426451 171.320893,29.593854 Z M174.857966,33.3543793 C174.857966,34.0750129 174.299615,34.6077807 173.523774,34.6077807 C173.058269,34.6077807 172.685929,34.3884435 172.375592,33.9497691 L171.78608,33.0097983 L171.755237,33.0097983 C170.762224,34.1379559 169.366027,34.7959675 167.19399,34.7959675 C163.873771,34.7959675 161.950066,33.1350421 161.950066,30.2833372 C161.950066,27.1808235 164.0601,25.6451419 167.752341,25.6451419 L171.134564,25.6451419 C171.258571,25.6451419 171.320893,25.58252 171.320893,25.4572762 L171.320893,24.7363215 C171.320893,22.6367216 170.358723,21.4459421 167.752341,21.4459421 C166.604478,21.4459421 165.425453,21.8219947 164.711616,22.1980472 C164.463283,22.323291 164.184107,22.4173844 163.966935,22.4173844 C163.284258,22.4173844 162.849914,21.97871 162.849914,21.2892268 C162.849914,20.8817028 163.036244,20.4744998 163.470587,20.2236911 C164.401279,19.597151 165.952644,19.0955335 168.000674,19.0955335 C171.972409,19.0955335 173.83411,21.0072677 173.83411,24.7051711 L173.83411,30.0951503 C173.83411,30.8787269 173.896114,31.1921576 174.113286,31.630832 L174.640794,32.6022743 C174.764802,32.8216115 174.857966,33.1035706 174.857966,33.3543793 Z M66.8726234,14.8022404 C66.8726234,13.8307981 67.6481467,13.078693 68.5791562,13.078693 C69.5101658,13.078693 70.2856891,13.8307981 70.2856891,14.8022404 C70.2856891,15.7425323 69.5101658,16.5257877 68.5791562,16.5257877 C67.6481467,16.5257877 66.8726234,15.7425323 66.8726234,14.8022404 Z M43.3129515,22.0169202 C43.3129515,34.0695082 33.6175621,43.8401381 21.6573624,43.8401381 C9.69716275,43.8401381 0.00190463681,34.0695082 0.00190463681,22.0169202 C0.00190463681,9.96433226 9.69716275,0.193569978 21.6573624,0.193569978 C33.6175621,0.193569978 43.3129515,9.96433226 43.3129515,22.0169202 Z M16.299422,33.7074712 L16.4018784,33.7044267 C13.7805727,33.5891308 11.6623539,30.0353442 9.68901878,22.8502009 C8.27906213,17.7154974 7.58853277,12.5128872 7.58104558,12.4609974 C7.52114804,12.0405845 7.84007619,11.6507494 8.25725732,11.5903879 C8.67430711,11.5294968 9.07572573,11.8219062 9.13575463,12.2423192 C9.14311047,12.2932823 9.88788914,17.4110422 11.2735453,22.4521588 C12.9471299,28.5416604 14.9192828,32.0702964 16.6904637,32.1673249 C17.6116511,32.1027275 19.2403126,30.4999693 20.8907789,26.147451 C20.985354,25.8983272 21.0784842,25.6457617 21.1684618,25.3904165 C20.3318665,22.3859729 19.8525548,19.1582181 19.8525548,16.8098093 C19.8525548,15.3477624 20.0217391,14.174948 20.3545908,13.3237971 C20.9473926,11.8088014 21.9711677,11.5914469 22.5285039,11.5825779 C23.0283068,11.5746356 23.8046105,11.6753706 24.2866807,12.9789684 C24.5243005,13.621369 24.6697097,14.4647099 24.6697097,15.564058 C24.6697097,17.9327196 23.9649941,21.8464253 22.7743991,25.4334373 C23.8895967,29.1706913 25.4700512,32.1564704 26.7363063,32.1564704 C27.5045974,32.1564704 28.4489032,31.162358 29.2346644,29.7944274 C28.4885722,28.06949 28.0536582,26.1193882 28.0536582,24.7420592 C28.0536582,23.920692 28.1896099,23.2507581 28.4582293,22.7509221 C28.8180087,22.0807235 29.4180349,21.7115384 30.1474452,21.7115384 C30.8906476,21.7115384 31.4629581,22.099785 31.8827663,22.7101515 C32.2053724,23.1795421 32.3339682,23.8169125 32.3339682,24.6182915 C32.3339682,26.0240804 31.8015894,28.0484429 30.9296598,29.8285794 C31.6075791,31.1585192 32.4273611,32.1159647 33.108827,32.1159647 C33.3866413,32.1159647 33.7049126,31.9681053 34.3544595,31.2468112 C34.6380533,30.9322957 35.1209116,30.9086012 35.4324839,31.1939948 C35.7445816,31.4793885 35.768094,31.9657226 35.4848943,32.2802381 C34.7423486,33.1047823 34.0540523,33.653993 33.108827,33.653993 C31.9300539,33.653993 30.8796138,32.6995921 30.0455143,31.3603862 C29.115132,32.72236 27.9684093,33.6944988 26.7364377,33.6944988 C24.8092079,33.6944988 22.8982661,31.085847 21.6827138,27.7397518 C20.3175489,31.0212496 18.1383817,33.5945581 16.299422,33.7038972 L16.299422,33.7074712 Z M30.1482333,14.9911527 C28.9581637,14.9911527 27.9873243,16.0747485 27.9843032,17.4103804 C27.9837777,18.0149225 28.1801524,18.6509692 28.5236438,19.1627187 C28.9402995,19.7838074 29.531131,20.1324748 30.1431105,20.1324748 L30.1470511,20.1324748 C31.4189544,20.1324748 32.3079601,18.7023295 32.3100617,17.4119688 C32.3117693,16.075278 31.3432944,14.993403 30.1482333,14.9911527 Z M29.579732,24.7192913 C29.6367398,25.7738977 29.7937081,26.8217531 30.1316826,27.8770214 C30.5440037,26.7727755 30.7592933,25.6142572 30.807763,24.6182915 C30.895245,22.8212115 29.4793774,22.8647618 29.579732,24.7192913 Z M30.2032707,18.5943141 L30.2019572,18.5943141 C29.9991462,18.5943141 29.803297,18.3995951 29.6652437,18.1936245 C29.5513595,18.0240562 29.4862078,17.7736087 29.4864705,17.5731977 C29.4875213,17.1305463 29.7344674,16.7515657 30.2036648,16.7515657 C30.6637988,16.7515657 30.9208591,17.1801857 30.9202023,17.6232343 C30.9195455,18.0509277 30.6249179,18.5943141 30.2032707,18.5943141 Z M21.7746618,13.8878335 C21.5160252,14.5492955 21.3792854,15.5596897 21.3792854,16.8098093 C21.3792854,18.5962996 21.6318797,20.6008063 22.0443321,22.5571297 C22.7293445,20.0011619 23.0864968,17.4445323 23.1433732,15.564058 C23.2340076,12.5716603 22.075069,13.1206063 21.7746618,13.8878335 Z" id="logo"></path>
                        </g>
                    </g>
                </g>
            </g>
        </g>
    </g>
</svg>

<svg viewBox="0 0 175 44" xmlns="http://www.w3.org/2000/svg"><g fill="none" fill-rule="evenodd"><path d="m56.01 30.03h.093l5.182-15.857c.217-.721.682-1.097 1.303-1.097.776 0 1.334.564 1.334 1.316 0 .188-.031.407-.124.689l-6.113 18.02c-.404 1.128-.838 1.598-1.707 1.598-.838 0-1.303-.47-1.676-1.598l-6.113-18.02c-.093-.282-.124-.501-.124-.689 0-.752.558-1.316 1.334-1.316.652 0 1.086.376 1.334 1.097l5.275 15.857m11.267-9.245c0-.878.559-1.41 1.303-1.41.745 0 1.303.533 1.303 1.41v12.504c0 .877-.559 1.41-1.303 1.41-.745 0-1.303-.533-1.303-1.41v-12.504m6.409 0c0-.878.558-1.41 1.303-1.41.745 0 1.303.533 1.303 1.41v.439h.031c.714-1.16 2.141-2.037 4.158-2.037 3.227 0 5.151 2.225 5.151 5.641v8.461c0 .877-.559 1.41-1.303 1.41-.745 0-1.303-.533-1.303-1.41v-7.834c0-2.413-1.086-3.823-3.32-3.823-2.02 0-3.413 1.441-3.413 3.666v7.991c0 .877-.559 1.41-1.303 1.41-.745 0-1.303-.533-1.303-1.41v-12.504m15.757 0c0-.878.558-1.41 1.303-1.41.745 0 1.303.533 1.303 1.41v.439h.031c.714-1.16 2.141-2.037 4.158-2.037 3.227 0 5.151 2.225 5.151 5.641v8.461c0 .877-.559 1.41-1.303 1.41-.745 0-1.303-.533-1.303-1.41v-7.834c0-2.413-1.086-3.823-3.32-3.823-2.02 0-3.413 1.441-3.413 3.666v7.991c0 .877-.559 1.41-1.303 1.41-.745 0-1.303-.533-1.303-1.41v-12.504m24.95 9.307c.248-.815.341-1.629.341-3.071 0-1.442-.093-2.225-.341-3.04-.496-1.504-1.707-2.35-3.351-2.35-1.645 0-2.854.846-3.351 2.35-.248.815-.341 1.598-.341 3.04 0 1.442.093 2.256.341 3.071.497 1.504 1.707 2.35 3.351 2.35 1.645 0 2.855-.846 3.351-2.35m-9.215.752c-.341-1.034-.496-2.068-.496-3.823 0-1.724.155-2.758.496-3.792.807-2.57 2.979-4.04 5.864-4.04 2.886 0 5.058 1.473 5.865 4.04.341 1.034.496 2.068.496 3.792 0 1.755-.155 2.789-.496 3.823-.807 2.539-2.979 4.04-5.865 4.04-2.886 0-5.058-1.504-5.864-4.04m19 2.225l-4.499-11.783c-.093-.251-.124-.439-.124-.658 0-.689.497-1.254 1.272-1.254.621 0 1.024.376 1.241.94l3.847 10.436h.062l3.755-10.436c.217-.564.621-.94 1.241-.94.776 0 1.272.564 1.272 1.254 0 .219-.031.407-.124.658l-4.53 11.783c-.466 1.222-.869 1.629-1.707 1.629-.838 0-1.241-.407-1.707-1.629m19.974-7.427c.124 0 .186-.063.186-.188 0-.689-.062-1.222-.217-1.692-.496-1.504-1.738-2.35-3.413-2.35-1.676 0-2.917.846-3.413 2.35-.155.47-.217 1-.217 1.692 0 .125.062.188.186.188h6.888m-9.247 5.077c-.31-.94-.496-2.01-.496-3.792 0-1.786.155-2.852.466-3.792.838-2.601 2.979-4.04 5.802-4.04 2.917 0 5.03 1.442 5.833 4.01.341 1 .496 2.162.496 3.635 0 .595-.403 1-1.024 1h-8.719c-.124 0-.186.063-.186.188 0 .721.062 1.222.248 1.818.559 1.724 1.924 2.601 3.755 2.601 1.458 0 2.451-.439 3.568-1.285.31-.25.59-.376.9-.376.621 0 1.086.47 1.086 1.097 0 .376-.155.689-.403.94-1.272 1.191-3.041 2.068-5.337 2.068-3.072 0-5.151-1.442-5.989-4.074m15.907 2.476v-12.504c0-.877.558-1.41 1.303-1.41.745 0 1.303.533 1.303 1.41v.689h.031c.621-1.347 1.986-2.288 3.817-2.288 1.024 0 1.707.251 2.203.533.528.282.745.689.745 1.128 0 .752-.528 1.316-1.303 1.316-.186 0-.434-.063-.652-.157-.558-.219-1.086-.376-1.707-.376-2.234 0-3.134 1.88-3.134 4.387v7.27c0 .877-.559 1.41-1.303 1.41-.745 0-1.303-.533-1.303-1.41m20.509-3.604v-1.661c0-.125-.062-.188-.186-.188h-2.979c-2.544 0-3.693.752-3.693 2.445 0 1.567 1.117 2.35 3.103 2.35 2.296 0 3.755-1.097 3.755-2.946m3.537 3.761c0 .721-.558 1.253-1.334 1.253-.466 0-.838-.219-1.148-.658l-.59-.94h-.031c-.993 1.128-2.389 1.786-4.561 1.786-3.32 0-5.244-1.661-5.244-4.513 0-3.103 2.11-4.638 5.802-4.638h3.382c.124 0 .186-.063.186-.188v-.721c0-2.1-.962-3.29-3.569-3.29-1.148 0-2.327.376-3.041.752-.248.125-.528.219-.745.219-.683 0-1.117-.439-1.117-1.128 0-.408.186-.815.621-1.066.931-.627 2.482-1.128 4.53-1.128 3.972 0 5.833 1.912 5.833 5.61v5.39c0 .784.062 1.097.279 1.536l.528.971c.124.219.217.501.217.752m-107.99-18.552c0-.971.776-1.724 1.707-1.724.931 0 1.707.752 1.707 1.724 0 .94-.776 1.724-1.707 1.724-.931 0-1.707-.783-1.707-1.724m-23.56 7.215c0 12.05-9.695 21.823-21.656 21.823-11.96 0-21.655-9.771-21.655-21.823 0-12.05 9.695-21.823 21.655-21.823 11.96 0 21.656 9.771 21.656 21.823m-27.01 11.691l.102-.003c-2.621-.115-4.74-3.669-6.713-10.854-1.41-5.135-2.1-10.337-2.108-10.389-.06-.42.259-.81.676-.871.417-.061.818.232.878.652.007.051.752 5.169 2.138 10.21 1.674 6.09 3.646 9.618 5.417 9.715.921-.065 2.55-1.667 4.2-6.02.095-.249.188-.502.278-.757-.837-3-1.316-6.232-1.316-8.581 0-1.462.169-2.635.502-3.486.593-1.515 1.617-1.732 2.174-1.741.5-.008 1.276.093 1.758 1.396.238.642.383 1.486.383 2.585 0 2.369-.705 6.282-1.895 9.869 1.115 3.737 2.696 6.723 3.962 6.723.768 0 1.713-.994 2.498-2.362-.746-1.725-1.181-3.675-1.181-5.05 0-.821.136-1.491.405-1.991.36-.67.96-1.039 1.689-1.039.743 0 1.316.388 1.735.999.323.469.451 1.107.451 1.908 0 1.406-.532 3.43-1.404 5.21.678 1.33 1.498 2.287 2.179 2.287.278 0 .596-.148 1.246-.869.284-.315.766-.338 1.078-.053.312.285.336.772.052 1.086-.743.825-1.431 1.374-2.376 1.374-1.179 0-2.229-.954-3.063-2.294-.93 1.362-2.077 2.334-3.309 2.334-1.927 0-3.838-2.609-5.05-5.955-1.365 3.281-3.544 5.855-5.383 5.964v.004m13.849-18.716c-1.19 0-2.161 1.084-2.164 2.419-.001.605.196 1.241.539 1.752.417.621 1.01.97 1.619.97h.004c1.272 0 2.161-1.43 2.163-2.721.002-1.337-.967-2.419-2.162-2.421m-.569 9.728c.057 1.055.214 2.102.552 3.158.412-1.104.628-2.263.676-3.259.087-1.797-1.328-1.754-1.228.101m.624-6.125h-.001c-.203 0-.399-.195-.537-.401-.114-.17-.179-.42-.179-.62.001-.443.248-.822.717-.822.46 0 .717.429.717.872-.001.428-.295.971-.717.971m-8.429-4.706c-.259.661-.395 1.672-.395 2.922 0 1.786.253 3.791.665 5.747.685-2.556 1.042-5.113 1.099-6.993.091-2.992-1.068-2.443-1.369-1.676" fill="#FFFFFF"/></g></svg>
